packages/icons/raw/imported/TravelSeats.svg

<svg width="32" height="32" viewBox="0 0 32 32" fill="none" xmlns="http://www.w3.org/2000/svg">
<path d="M13.7908 22.5026L12.2424 25.5688C12.2195 25.6141 12.2086 25.6645 12.2108 25.7152C12.2129 25.7659 12.2279 25.8152 12.2545 25.8585C12.2811 25.9017 12.3183 25.9374 12.3626 25.9622C12.4068 25.987 12.4567 26 12.5075 26H22.2863C22.3371 26 22.387 25.987 22.4312 25.9622C22.4755 25.9374 22.5127 25.9017 22.5393 25.8585C22.5659 25.8152 22.5809 25.7659 22.5831 25.7152C22.5852 25.6645 22.5743 25.6141 22.5514 25.5688L21.003 22.5026M12.41 14.2331H17.9369C18.0315 14.2331 18.1222 14.2706 18.189 14.3375C18.2559 14.4044 18.2935 14.4951 18.2935 14.5896V15.7188C18.2935 15.8134 18.2559 15.9041 18.189 15.9709C18.1222 16.0378 18.0315 16.0754 17.9369 16.0754H12.826M8.57685 7.53781L9.69739 6.36677C9.83612 6.22181 10.0093 6.11433 10.2008 6.05435C10.3922 5.99437 10.5958 5.98384 10.7924 6.02373C10.9891 6.06363 11.1724 6.15266 11.3254 6.28252C11.4783 6.41239 11.5959 6.57886 11.6672 6.76643L13.0652 10.4457C13.1175 10.5836 13.1166 10.736 13.0627 10.8733C13.0088 11.0106 12.9058 11.123 12.7737 11.1885L11.9486 11.5977C11.8208 11.661 11.7201 11.7682 11.6648 11.8996C11.6095 12.031 11.6033 12.1779 11.6472 12.3135L13.6283 18.4228C13.7136 18.6856 13.8799 18.9146 14.1033 19.0769C14.3268 19.2393 14.5959 19.3268 14.8722 19.3267H23.0131C23.7212 19.3267 24.1464 20.1124 23.7596 20.7055L22.9436 21.9556C22.8356 22.1211 22.688 22.2571 22.5142 22.3512C22.3404 22.4453 22.1458 22.4946 21.9482 22.4946H13.6129C13.2372 22.4945 12.8712 22.3757 12.567 22.1552C12.2628 21.9347 12.0361 21.6238 11.9191 21.2668L8.1035 9.62347C7.98616 9.26555 7.96822 8.88247 8.05159 8.51514C8.13495 8.14782 8.3165 7.81002 8.57685 7.53781Z" stroke="black" stroke-miterlimit="10"/>
</svg>

<svg width="32" height="32" fill="none" xmlns="http://www.w3.org/2000/svg"><path d="m13.79 22.503-1.548 3.066a.296.296 0 0 0 .12.393.296.296 0 0 0 .146.038h9.778a.296.296 0 0 0 .265-.431l-1.548-3.066m-8.593-8.27h5.527a.356.356 0 0 1 .357.357v1.129a.356.356 0 0 1-.357.356h-5.111m-4.25-8.537 1.121-1.171a1.188 1.188 0 0 1 1.97.4l1.398 3.679a.594.594 0 0 1-.291.742l-.825.41a.594.594 0 0 0-.302.715l1.981 6.11a1.307 1.307 0 0 0 1.244.904h8.141a.892.892 0 0 1 .747 1.378l-.816 1.25a1.188 1.188 0 0 1-.996.54h-8.335a1.783 1.783 0 0 1-1.694-1.228L8.103 9.623a2.08 2.08 0 0 1 .474-2.085Z" stroke="#000" stroke-miterlimit="10"/></svg>
